resources/mmv/img/gear_gray.svg

<?xml version="1.0" encoding="UTF-8" standalone="no"?>
<svg xmlns="http://www.w3.org/2000/svg" viewBox="0 0 1024 768">
    <path d="M897 454.6V313.4L810.4 299c-6.4-23.3-16-45.7-27.3-65.8l50.5-71.4-99.4-100.2-71.4 50.5c-20.9-11.2-42.5-20.9-65.8-27.3L582.6-1H441.4L427 85.6c-23.3 6.4-45.7 16-65.8 27.3l-71.4-50.5-100.3 99.5 50.5 71.4c-11.2 20.9-20.9 42.5-27.3 66.6L127 313.4v141.2l85.8 14.4c6.4 23.3 16 45.7 27.3 66.6L189.6 607l99.5 99.5 71.4-50.5c20.9 11.2 42.5 20.9 66.6 27.3l14.4 85.8h141.2l14.4-86.6c23.3-6.4 45.7-16 65.8-27.3l71.4 50.5 99.5-99.5-50.5-71.4c11.2-20.9 20.9-42.5 27.3-66.6l86.4-13.6zm-385 77c-81.8 0-147.6-66.6-147.6-147.6 0-81.8 66.6-147.6 147.6-147.6S659.6 302.2 659.6 384 593.8 531.6 512 531.6z" fill="#777"/>
</svg>

<?xml version="1.0" encoding="UTF-8" standalone="no"?>
<!-- Created with Inkscape (http://www.inkscape.org/) -->

<svg
   xmlns:dc="http://purl.org/dc/elements/1.1/"
   xmlns:cc="http://creativecommons.org/ns#"
   xmlns:rdf="http://www.w3.org/1999/02/22-rdf-syntax-ns#"
   xmlns:svg="http://www.w3.org/2000/svg"
   xmlns="http://www.w3.org/2000/svg"
   version="1.1"
   width="100%"
   height="100%"
   viewBox="0 0 1024 768"
   id="Layer_1"
   xml:space="preserve"><metadata
     id="metadata9"><rdf:RDF><cc:Work
         rdf:about=""><dc:format>image/svg+xml</dc:format><dc:type
           rdf:resource="http://purl.org/dc/dcmitype/StillImage" /><dc:title></dc:title></cc:Work></rdf:RDF></metadata><defs
     id="defs7" /><path
     d="M 897,454.6 V 313.4 L 810.4,299 c -6.4,-23.3 -16,-45.7 -27.3,-65.8 L 833.6,161.8 734.2,61.6 662.8,112.1 C 641.9,100.9 620.3,91.2 597,84.8 L 582.6,-1 H 441.4 L 427,85.6 c -23.3,6.4 -45.7,16 -65.8,27.3 L 289.8,62.4 189.5,161.9 240,233.3 c -11.2,20.9 -20.9,42.5 -27.3,66.6 L 127,313.4 v 141.2 l 85.8,14.4 c 6.4,23.3 16,45.7 27.3,66.6 l -50.5,71.4 99.5,99.5 71.4,-50.5 c 20.9,11.2 42.5,20.9 66.6,27.3 l 14.4,85.8 h 141.2 l 14.4,-86.6 c 23.3,-6.4 45.7,-16 65.8,-27.3 l 71.4,50.5 99.5,-99.5 -50.5,-71.4 c 11.2,-20.9 20.9,-42.5 27.3,-66.6 L 897,454.6 z m -385,77 C 430.2,531.6 364.4,465 364.4,384 364.4,302.2 431,236.4 512,236.4 c 81,0 147.6,65.8 147.6,147.6 0,81.8 -65.8,147.6 -147.6,147.6 z"
     id="path3"
     style="fill:#777777" /></svg>
